src/pos-icons/plus-minus.svg

<svg height="24" viewBox="0 0 24 24" width="24" xmlns="http://www.w3.org/2000/svg"><path d="m11 4v5h-5v2h5v5h2v-5h5v-2h-5v-5zm-5 14v2h12v-2z"/></svg>

<?xml version="1.0" encoding="UTF-8"?><!DOCTYPE svg PUBLIC "-//W3C//DTD SVG 1.1//EN" "http://www.w3.org/Graphics/SVG/1.1/DTD/svg11.dtd"><svg xmlns="http://www.w3.org/2000/svg" xmlns:xlink="http://www.w3.org/1999/xlink" version="1.1" id="mdi-plus-minus" width="24" height="24" viewBox="0 0 24 24"><path d="M11,4V9H6V11H11V16H13V11H18V9H13V4H11M6,18V20H18V18H6Z" /></svg>
